!!!COM: Ayssav, Francois Vincent
!!!CDT: b.1955
!!!OTL: National Anthem, Vanuatu
!!!ENC: Davis, Matthew J.
!!Vocal Line Only
**kern
*clefG2
*k[b-e-]
*B-:
*M4/4
=1-
4f
==!|:2
2.f
4f
=3
2.g
4g
=4
4.a
8a
4a
4a
=5
4b-
4cc
8dd
8r
4f
=6
2.f
4f
=7
2.g
4g
=8
4.a-
8a-
4a-
4a-
=9
4b-
8.b-
16b-
4b-
8.d
16f
=10
[2b-
8.b-]
16b-
8.a
16g
=11
[4f
8.f]
16d
8d
8r
8.d
16f
=12
[2g
8.g]
16g
8.f
16e-
=13
[2f
8f]
8r
8.d
16f
=14
[2b-
8.b-]
16b-
8.a
16g
=15
[4f
8.f]
16d
8d
8r
8.d
16f
=16
[2g
8.g]
16g
8.a
16b-
=17
!First and Second Ending
[2cc
8cc]
8r
4f
==:|!18
!Third Ending
[2cc
8cc]
8r
4f
=19
2.f
4f
=20
2/g
4g
=21
4.a
8a
4a
4a
=22
4b-
4cc
8dd
8r
4f
=23
2.f
4f
=24
2.g
4g
=25
4.a
8a
4a
4a
=26
4b-
8.b-
16b-
4b-
4r
==|!
*-
